symbols/web/23mp/materialsymbolsoutlined/23mp_wght100fill1_40px.svg

<svg xmlns="http://www.w3.org/2000/svg" height="40" width="40"><path d="M11.417 18.417H17.5v-1.084h-5v-2.708h3.833q.459 0 .813-.333.354-.334.354-.834v-2.541q0-.459-.354-.813-.354-.354-.813-.354h-4.916v1.083h5v2.709h-3.834q-.458 0-.812.333-.354.333-.354.833Zm10.083 0h4.917q.458 0 .812-.355.354-.354.354-.812v-6.333q0-.459-.354-.813-.354-.354-.812-.354H21.5v1.083h5v2.709h-3.292v1.083H26.5v2.708h-5ZM10.625 30.25h1.083v-7.583h3.084v5.041h1.083v-5.041h3.167v7.583h1.083v-7.667q0-.416-.271-.708t-.729-.292h-7.5q-.458 0-.729.292-.271.292-.271.708Zm12.667 0h1.083v-2.542h4q.458 0 .729-.27.271-.271.271-.73v-4.125q0-.416-.271-.708t-.729-.292h-5.083Zm1.083-3.625v-3.958h3.917v3.958ZM9.5 32.833q-1 0-1.667-.666-.666-.667-.666-1.667v-21q0-1 .666-1.667.667-.666 1.667-.666h21q1 0 1.667.666.666.667.666 1.667v21q0 1-.666 1.667-.667.666-1.667.666Z"/></svg>

<svg xmlns="http://www.w3.org/2000/svg" height="40" width="40"><path d="M11.417 18.417H17.5V17.333H12.5V14.625H16.333Q16.792 14.625 17.146 14.292Q17.5 13.958 17.5 13.458V10.917Q17.5 10.458 17.146 10.104Q16.792 9.75 16.333 9.75H11.417V10.833H16.417V13.542H12.583Q12.125 13.542 11.771 13.875Q11.417 14.208 11.417 14.708ZM21.5 18.417H26.417Q26.875 18.417 27.229 18.062Q27.583 17.708 27.583 17.25V10.917Q27.583 10.458 27.229 10.104Q26.875 9.75 26.417 9.75H21.5V10.833H26.5V13.542H23.208V14.625H26.5V17.333H21.5ZM9.5 32.833Q8.5 32.833 7.833 32.167Q7.167 31.5 7.167 30.5V9.5Q7.167 8.5 7.833 7.833Q8.5 7.167 9.5 7.167H30.5Q31.5 7.167 32.167 7.833Q32.833 8.5 32.833 9.5V30.5Q32.833 31.5 32.167 32.167Q31.5 32.833 30.5 32.833ZM11.625 21.583Q11.167 21.583 10.896 21.875Q10.625 22.167 10.625 22.583V30.25H11.708V22.667H14.792V27.708H15.875V22.667H19.042V30.25H20.125V22.583Q20.125 22.167 19.854 21.875Q19.583 21.583 19.125 21.583ZM23.292 21.583V30.25H24.375V27.708H28.375Q28.833 27.708 29.104 27.438Q29.375 27.167 29.375 26.708V22.583Q29.375 22.167 29.104 21.875Q28.833 21.583 28.375 21.583ZM24.375 22.667H28.292V26.625H24.375Z"/></svg>
